kicad/e-r-wifi/e-r-wifi-lf/e-r-wifi-lf-NPTH-drl_map.svg

<?xml version="1.0" encoding="UTF-8" standalone="no"?>
<svg
   xmlns:dc="http://purl.org/dc/elements/1.1/"
   xmlns:cc="http://creativecommons.org/ns#"
   xmlns:rdf="http://www.w3.org/1999/02/22-rdf-syntax-ns#"
   xmlns:svg="http://www.w3.org/2000/svg"
   xmlns="http://www.w3.org/2000/svg"
   xmlns:sodipodi="http://sodipodi.sourceforge.net/DTD/sodipodi-0.dtd"
   xmlns:inkscape="http://www.inkscape.org/namespaces/inkscape"
   version="1.1"
   width="29.700220cm"
   height="21.000720cm"
   viewBox="0 0 116930 82680"
   id="svg74"
   sodipodi:docname="e-r-wifi-lf-NPTH-drl_map.svg"
   inkscape:version="0.92.3 (2405546, 2018-03-11)">
  <metadata
     id="metadata80">
    <rdf:RDF>
      <cc:Work
         rdf:about="">
        <dc:format>image/svg+xml</dc:format>
        <dc:type
           rdf:resource="http://purl.org/dc/dcmitype/StillImage" />
      </cc:Work>
    </rdf:RDF>
  </metadata>
  <defs
     id="defs78" />
  <sodipodi:namedview
     pagecolor="#ffffff"
     bordercolor="#666666"
     borderopacity="1"
     objecttolerance="10"
     gridtolerance="10"
     guidetolerance="10"
     inkscape:pageopacity="0"
     inkscape:pageshadow="2"
     inkscape:window-width="1853"
     inkscape:window-height="1025"
     id="namedview76"
     showgrid="false"
     inkscape:zoom="1.0230205"
     inkscape:cx="561.264"
     inkscape:cy="396.86398"
     inkscape:window-x="67"
     inkscape:window-y="27"
     inkscape:window-maximized="1"
     inkscape:current-layer="svg74" />
  <title
     id="title2">SVG Picture created as e-r-wifi-lf-NPTH-drl_map.svg date 2021/12/09 14:27:03 </title>
  <desc
     id="desc4">Picture generated by PCBNEW </desc>
  <g
     style="fill:#000000; fill-opacity:1;stroke:#000000; stroke-opacity:1; stroke-linecap:round; stroke-linejoin:round;"
     transform="translate(0 0) scale(1 1)"
     id="g6" />
  <g
     style="fill:#000000; fill-opacity:0.0;  stroke:#000000; stroke-width:-0.000393701; stroke-opacity:1;  stroke-linecap:round; stroke-linejoin:round;"
     id="g8" />
  <g
     style="fill:#000000;fill-opacity:0;stroke:#000000;stroke-width:196.85040195;stroke-linecap:round;stroke-linejoin:round;stroke-opacity:1;stroke-miterlimit:4;stroke-dasharray:none"
     id="g38"
     inkscape:export-xdpi="163"
     inkscape:export-ydpi="163">
    <path
       d="M 65350,57500 H 64100"
       id="path10"
       inkscape:connector-curvature="0"
       style="stroke-width:196.85040195;stroke-miterlimit:4;stroke-dasharray:none" />
    <path
       d="M 65350,43500 H 64100"
       id="path12"
       inkscape:connector-curvature="0"
       style="stroke-width:196.85040195;stroke-miterlimit:4;stroke-dasharray:none" />
    <circle
       cx="63850"
       cy="45000"
       r="629.92102"
       id="circle14"
       style="stroke-width:196.85040195;stroke-miterlimit:4;stroke-dasharray:none" />
    <circle
       cx="63850"
       cy="56000"
       r="629.92102"
       id="circle16"
       style="stroke-width:196.85040195;stroke-miterlimit:4;stroke-dasharray:none" />
    <path
       d="M 65350,57500 V 43500"
       id="path18"
       inkscape:connector-curvature="0"
       style="stroke-width:196.85040195;stroke-miterlimit:4;stroke-dasharray:none" />
    <path
       d="m 37100,43500 h 2000"
       id="path20"
       inkscape:connector-curvature="0"
       style="stroke-width:196.85040195;stroke-miterlimit:4;stroke-dasharray:none" />
    <path
       d="M 37100,57500 V 43500"
       id="path22"
       inkscape:connector-curvature="0"
       style="stroke-width:196.85040195;stroke-miterlimit:4;stroke-dasharray:none" />
    <path
       d="M 39100,57500 H 37100"
       id="path24"
       inkscape:connector-curvature="0"
       style="stroke-width:196.85040195;stroke-miterlimit:4;stroke-dasharray:none" />
    <path
       d="M 64100,57500 H 39100"
       id="path26"
       inkscape:connector-curvature="0"
       style="stroke-width:196.85040195;stroke-miterlimit:4;stroke-dasharray:none" />
    <path
       d="m 63100,43500 h 1000"
       id="path28"
       inkscape:connector-curvature="0"
       style="stroke-width:196.85040195;stroke-miterlimit:4;stroke-dasharray:none" />
    <path
       d="m 39100,43500 h 1000"
       id="path30"
       inkscape:connector-curvature="0"
       style="stroke-width:196.85040195;stroke-miterlimit:4;stroke-dasharray:none" />
    <circle
       cx="38600"
       cy="56000"
       r="629.92102"
       id="circle32"
       style="stroke-width:196.85040195;stroke-miterlimit:4;stroke-dasharray:none" />
    <circle
       cx="38600"
       cy="45000"
       r="629.92102"
       id="circle34"
       style="stroke-width:196.85040195;stroke-miterlimit:4;stroke-dasharray:none" />
    <path
       d="M 40100,43500 H 63100"
       id="path36"
       inkscape:connector-curvature="0"
       style="stroke-width:196.85040195;stroke-miterlimit:4;stroke-dasharray:none" />
  </g>
  <g
     style="fill:#000000; fill-opacity:0.0;  stroke:#000000; stroke-width:78.7402; stroke-opacity:1;  stroke-linecap:round; stroke-linejoin:round;"
     id="g40" />
  <g
     style="fill:#000000;fill-opacity:0;stroke:#000000;stroke-width:196.85040195;stroke-linecap:round;stroke-linejoin:round;stroke-opacity:1;stroke-miterlimit:4;stroke-dasharray:none"
     id="g72"
     inkscape:export-xdpi="163"
     inkscape:export-ydpi="163">
    <text
       x="37877.602"
       y="59399.602"
       textLength="8779.5303"
       font-size="1574.8"
       lengthAdjust="spacingAndGlyphs"
       id="text42"
       style="font-size:1574.80004883px;text-anchor:start;opacity:0;stroke-width:196.85040195;stroke-miterlimit:4;stroke-dasharray:none">Drill Map:</text>
    <path
       d="m 38217,59343 v -1181 h 282 l 168,56 113,112 56,113 56,225 v 169 l -56,225 -56,112 -113,113 -168,56 h -282"
       id="path44"
       inkscape:connector-curvature="0"
       style="stroke-width:196.85040195;stroke-miterlimit:4;stroke-dasharray:none" />
    <path
       d="m 39398,59343 v -788"
       id="path46"
       inkscape:connector-curvature="0"
       style="stroke-width:196.85040195;stroke-miterlimit:4;stroke-dasharray:none" />
    <path
       d="m 39398,58780 57,-112 56,-56 112,-57 h 113"
       id="path48"
       inkscape:connector-curvature="0"
       style="stroke-width:196.85040195;stroke-miterlimit:4;stroke-dasharray:none" />
    <path
       d="m 40130,59343 v -788"
       id="path50"
       inkscape:connector-curvature="0"
       style="stroke-width:196.85040195;stroke-miterlimit:4;stroke-dasharray:none" />
    <path
       d="m 40130,58162 -57,56 57,56 56,-56 -56,-56 v 112"
       id="path52"
       inkscape:connector-curvature="0"
       style="stroke-width:196.85040195;stroke-miterlimit:4;stroke-dasharray:none" />
    <path
       d="m 40861,59343 -113,-56 -56,-113 v -1012"
       id="path54"
       inkscape:connector-curvature="0"
       style="stroke-width:196.85040195;stroke-miterlimit:4;stroke-dasharray:none" />
    <path
       d="m 41479,59343 -112,-56 -56,-113 v -1012"
       id="path56"
       inkscape:connector-curvature="0"
       style="stroke-width:196.85040195;stroke-miterlimit:4;stroke-dasharray:none" />
    <path
       d="m 42829,59343 v -1181 l 394,843 394,-843 v 1181"
       id="path58"
       inkscape:connector-curvature="0"
       style="stroke-width:196.85040195;stroke-miterlimit:4;stroke-dasharray:none" />
    <path
       d="m 44685,59343 v -619 l -56,-112 -112,-57 h -225 l -113,57"
       id="path60"
       inkscape:connector-curvature="0"
       style="stroke-width:196.85040195;stroke-miterlimit:4;stroke-dasharray:none" />
    <path
       d="m 44685,59287 -112,56 h -281 l -113,-56 -56,-113 v -112 l 56,-113 113,-56 h 281 l 112,-56"
       id="path62"
       inkscape:connector-curvature="0"
       style="stroke-width:196.85040195;stroke-miterlimit:4;stroke-dasharray:none" />
    <path
       d="m 45248,58555 v 1182"
       id="path64"
       inkscape:connector-curvature="0"
       style="stroke-width:196.85040195;stroke-miterlimit:4;stroke-dasharray:none" />
    <path
       d="m 45248,58612 112,-57 h 225 l 113,57 56,56 56,112 v 338 l -56,112 -56,57 -113,56 h -225 l -112,-56"
       id="path66"
       inkscape:connector-curvature="0"
       style="stroke-width:196.85040195;stroke-miterlimit:4;stroke-dasharray:none" />
    <path
       d="m 46316,59230 57,57 -57,56 -56,-56 56,-57 v 113"
       id="path68"
       inkscape:connector-curvature="0"
       style="stroke-width:196.85040195;stroke-miterlimit:4;stroke-dasharray:none" />
    <path
       d="m 46316,58612 57,56 -57,56 -56,-56 56,-56 v 112"
       id="path70"
       inkscape:connector-curvature="0"
       style="stroke-width:196.85040195;stroke-miterlimit:4;stroke-dasharray:none" />
  </g>
</svg>

<?xml version="1.0" standalone="no"?>
 <!DOCTYPE svg PUBLIC "-//W3C//DTD SVG 1.1//EN" 
 "http://www.w3.org/Graphics/SVG/1.1/DTD/svg11.dtd"> 
<svg
  xmlns:svg="http://www.w3.org/2000/svg"
  xmlns="http://www.w3.org/2000/svg"
  xmlns:xlink="http://www.w3.org/1999/xlink"
  version="1.1"
  width="29.700220cm" height="21.000720cm" viewBox="0 0 116930 82680">
<title>SVG Picture created as e-r-wifi-lf-NPTH-drl_map.svg date 2021/12/14 19:09:06 </title>
  <desc>Picture generated by PCBNEW </desc>
<g style="fill:#000000; fill-opacity:1;stroke:#000000; stroke-opacity:1;
stroke-linecap:round; stroke-linejoin:round;"
 transform="translate(0 0) scale(1 1)">
</g>
<g style="fill:#000000; fill-opacity:0.0; 
stroke:#000000; stroke-width:-0.000393701; stroke-opacity:1; 
stroke-linecap:round; stroke-linejoin:round;">
</g>
<g style="fill:#000000; fill-opacity:0.0; 
stroke:#000000; stroke-width:19.685; stroke-opacity:1; 
stroke-linecap:round; stroke-linejoin:round;">
<path d="M65350 57500
L64100 57500
" />
<path d="M65350 43500
L64100 43500
" />
<circle cx="63850" cy="45000" r="629.921" /> 
<circle cx="63850" cy="56000" r="629.921" /> 
<path d="M65350 57500
L65350 43500
" />
<path d="M37100 43500
L39100 43500
" />
<path d="M37100 57500
L37100 43500
" />
<path d="M39100 57500
L37100 57500
" />
<path d="M64100 57500
L39100 57500
" />
<path d="M63100 43500
L64100 43500
" />
<path d="M39100 43500
L40100 43500
" />
<circle cx="38600" cy="56000" r="629.921" /> 
<circle cx="38600" cy="45000" r="629.921" /> 
<path d="M40100 43500
L63100 43500
" />
</g>
<g style="fill:#000000; fill-opacity:0.0; 
stroke:#000000; stroke-width:78.7402; stroke-opacity:1; 
stroke-linecap:round; stroke-linejoin:round;">
</g>
<g style="fill:#000000; fill-opacity:0.0; 
stroke:#000000; stroke-width:118.11; stroke-opacity:1; 
stroke-linecap:round; stroke-linejoin:round;">
<text x="37877.6" y="59399.6"
textLength="8779.53" font-size="1574.8" lengthAdjust="spacingAndGlyphs"
text-anchor="start" opacity="0">Drill Map:</text>
<path d="M38217 59343
L38217 58162
L38499 58162
L38667 58218
L38780 58330
L38836 58443
L38892 58668
L38892 58837
L38836 59062
L38780 59174
L38667 59287
L38499 59343
L38217 59343
" />
<path d="M39398 59343
L39398 58555
" />
<path d="M39398 58780
L39455 58668
L39511 58612
L39623 58555
L39736 58555
" />
<path d="M40130 59343
L40130 58555
" />
<path d="M40130 58162
L40073 58218
L40130 58274
L40186 58218
L40130 58162
L40130 58274
" />
<path d="M40861 59343
L40748 59287
L40692 59174
L40692 58162
" />
<path d="M41479 59343
L41367 59287
L41311 59174
L41311 58162
" />
<path d="M42829 59343
L42829 58162
L43223 59005
L43617 58162
L43617 59343
" />
<path d="M44685 59343
L44685 58724
L44629 58612
L44517 58555
L44292 58555
L44179 58612
" />
<path d="M44685 59287
L44573 59343
L44292 59343
L44179 59287
L44123 59174
L44123 59062
L44179 58949
L44292 58893
L44573 58893
L44685 58837
" />
<path d="M45248 58555
L45248 59737
" />
<path d="M45248 58612
L45360 58555
L45585 58555
L45698 58612
L45754 58668
L45810 58780
L45810 59118
L45754 59230
L45698 59287
L45585 59343
L45360 59343
L45248 59287
" />
<path d="M46316 59230
L46373 59287
L46316 59343
L46260 59287
L46316 59230
L46316 59343
" />
<path d="M46316 58612
L46373 58668
L46316 58724
L46260 58668
L46316 58612
L46316 58724
" />
</g> 
</svg>
